static/fa/svgs/solid/flask-vial.svg

<svg xmlns="http://www.w3.org/2000/svg" viewBox="0 0 640 512"><!--! Font Awesome Free 6.1.1 by @fontawesome - https://fontawesome.com License - https://fontawesome.com/license/free (Icons: CC BY 4.0, Fonts: SIL OFL 1.1, Code: MIT License) Copyright 2022 Fonticons, Inc.--><path d="M160 442.5c-10.9 3.6-20.8 5.5-32 5.5-53.02 0-96-43-96-96V64C14.33 64 0 49.67 0 32S14.33 0 32 0h192c17.7 0 32 14.33 32 32s-14.3 32-32 32v245.9l-49 79.5c-9.8 16-15 34.4-15 53.1zM96 160h64V64H96v96zM512 0c17.7 0 32 14.33 32 32s-14.3 32-32 32v150.9l117.7 191.3c6.7 11 10.3 23.5 10.3 36.4 0 38.3-31.1 69.4-69.4 69.4H261.4c-38.3 0-70.3-31.1-70.3-69.4 0-12.9 4.5-25.4 11.2-36.4l116.8-191.3V64c-16.8 0-32-14.33-32-32s15.2-32 32-32H512zM384 64v160c0 5.9-1.6 11.7-4.7 16.8L330.5 320h171l-48.8-79.2c-3.1-5.1-4.7-10.9-4.7-16.8V64h-64z"/></svg>

<svg xmlns="http://www.w3.org/2000/svg" viewBox="0 0 640 512"><!--! Font Awesome Free 6.1.1 by @fontawesome - https://fontawesome.com License - https://fontawesome.com/license/free (Icons: CC BY 4.0, Fonts: SIL OFL 1.1, Code: MIT License) Copyright 2022 Fonticons, Inc. --><path d="M160 442.5C149.1 446.1 139.2 448 128 448C74.98 448 32 405 32 352V64C14.33 64 0 49.67 0 32C0 14.33 14.33 0 32 0H224C241.7 0 256 14.33 256 32C256 49.67 241.7 64 224 64V309.9L175 389.4C165.2 405.4 160 423.8 160 442.5zM96 160H160V64H96V160zM512 0C529.7 0 544 14.33 544 32C544 49.67 529.7 64 512 64V214.9L629.7 406.2C636.4 417.2 640 429.7 640 442.6C640 480.9 608.9 512 570.6 512H261.4C223.1 512 191.1 480.9 191.1 442.6C191.1 429.7 195.6 417.2 202.3 406.2L319.1 214.9V64C302.3 64 287.1 49.67 287.1 32C287.1 14.33 302.3 0 319.1 0L512 0zM384 64V224C384 229.9 382.4 235.7 379.3 240.8L330.5 320H501.5L452.7 240.8C449.6 235.7 448 229.9 448 224V64H384z"/></svg>
